www/assets/icons/screenshot_monitor.svg

<svg xmlns="http://www.w3.org/2000/svg" width="24" height="24" viewBox="0 0 24 24" fill='currentColor'><path d="M20 3H4c-1.11 0-2 .89-2 2v12a2 2 0 0 0 2 2h4v2h8v-2h4c1.1 0 2-.9 2-2V5a2 2 0 0 0-2-2m0 14H4V5h16z"/><path d="M6.5 7.5H9V6H5v4h1.5zM19 12h-1.5v2.5H15V16h4z"/></svg>

<svg width="24" height="24" viewBox="0 0 24 24" xmlns="http://www.w3.org/2000/svg" fill='currentColor'><path d="M20 3H4C2.89 3 2 3.89 2 5V17C2 18.1 2.89 19 4 19H8V21H16V19H20C21.1 19 22 18.1 22 17V5C22 3.89 21.1 3 20 3ZM20 17H4V5H20V17Z"/><path d="M6.5 7.5H9V6H5V10H6.5V7.5Z"/><path d="M19 12H17.5V14.5H15V16H19V12Z"/></svg>
